icons/1_Primary/RoboForm.svg

<svg width="1024" height="1024" fill="none" xmlns="http://www.w3.org/2000/svg"><g clip-path="url(#a)"><path d="M512 1024c282.77 0 512-229.23 512-512S794.77 0 512 0 0 229.23 0 512s229.23 512 512 512Z" fill="#98DC9A"/><path d="M716 656c28.27 0 52 25.09 52 56s-23.73 56-52 56H308c-28.27 0-52-25.07-52-56s23.73-56 52-56h408Zm52-332v232c0 37.16-30.79 68-68 68H324c-37.14 0-68-30.86-68-68V324c0-37.16 30.84-68 68-68h376c37.16 0 68 30.84 68 68Zm-56 24a36 36 0 0 0-36-36H348a36 36 0 0 0-36 36v184a36 36 0 0 0 36 36h328a36 36 0 0 0 36-36V348Zm-107.88 36.24a54.613 54.613 0 0 1 38.615 93.225 54.611 54.611 0 0 1-84.022-8.275 54.612 54.612 0 0 1 45.407-84.95Zm-181.39 0a54.613 54.613 0 0 1 38.615 93.225 54.611 54.611 0 0 1-84.022-8.275 54.612 54.612 0 0 1 45.407-84.95Z" fill="#fff"/></g><defs><clipPath id="a"><path fill="#fff" d="M0 0h1024v1024H0z"/></clipPath></defs></svg>

<svg width="1024" height="1024" viewBox="0 0 1024 1024" fill="none" xmlns="http://www.w3.org/2000/svg">
<g clip-path="url(#clip0_2_3360)">
<path d="M512 1024C794.77 1024 1024 794.77 1024 512C1024 229.23 794.77 0 512 0C229.23 0 0 229.23 0 512C0 794.77 229.23 1024 512 1024Z" fill="#98DC9A"/>
<path d="M716 656C744.27 656 768 681.09 768 712C768 742.91 744.27 768 716 768H308C279.73 768 256 742.93 256 712C256 681.07 279.73 656 308 656H716ZM768 324V556C768 593.16 737.21 624 700 624H324C286.86 624 256 593.14 256 556V324C256 286.84 286.84 256 324 256H700C737.16 256 768 286.84 768 324ZM712 348C712 338.452 708.207 329.295 701.456 322.544C694.705 315.793 685.548 312 676 312H348C338.452 312 329.295 315.793 322.544 322.544C315.793 329.295 312 338.452 312 348V532C312 541.548 315.793 550.705 322.544 557.456C329.295 564.207 338.452 568 348 568H676C685.548 568 694.705 564.207 701.456 557.456C708.207 550.705 712 541.548 712 532V348ZM604.12 384.24C614.921 384.24 625.479 387.443 634.46 393.443C643.44 399.444 650.44 407.973 654.573 417.952C658.706 427.93 659.788 438.911 657.681 449.504C655.574 460.097 650.372 469.828 642.735 477.465C635.098 485.102 625.367 490.304 614.774 492.411C604.181 494.518 593.2 493.436 583.222 489.303C573.243 485.17 564.714 478.17 558.713 469.19C552.713 460.209 549.51 449.651 549.51 438.85C549.51 424.367 555.264 410.476 565.505 400.235C575.746 389.994 589.637 384.24 604.12 384.24ZM422.73 384.24C433.531 384.24 444.089 387.443 453.07 393.443C462.05 399.444 469.05 407.973 473.183 417.952C477.316 427.93 478.398 438.911 476.291 449.504C474.184 460.097 468.982 469.828 461.345 477.465C453.708 485.102 443.977 490.304 433.384 492.411C422.791 494.518 411.81 493.436 401.832 489.303C391.853 485.17 383.324 478.17 377.323 469.19C371.323 460.209 368.12 449.651 368.12 438.85C368.12 424.367 373.874 410.476 384.115 400.235C394.356 389.994 408.247 384.24 422.73 384.24Z" fill="white"/>
</g>
<defs>
<clipPath id="clip0_2_3360">
<rect width="1024" height="1024" fill="white"/>
</clipPath>
</defs>
</svg>
